packages/elvis-assets-icons/icons/svg/src/check_circle.svg

<svg width="24" height="24" viewBox="0 0 24 24" fill="none" xmlns="http://www.w3.org/2000/svg">
<g clip-path="url(#clip0)">
<path d="M12 23.997C5.383 23.997 0 18.614 0 11.997C0 5.37998 5.383 -0.00302124 12 -0.00302124C18.617 -0.00302124 24 5.37998 24 11.997C24 18.614 18.617 23.997 12 23.997ZM12 1.49698C6.21 1.49698 1.5 6.20698 1.5 11.997C1.5 17.787 6.21 22.497 12 22.497C17.79 22.497 22.5 17.787 22.5 11.997C22.5 6.20698 17.79 1.49698 12 1.49698Z" fill="black"/>
<path fill-rule="evenodd" clip-rule="evenodd" d="M6.53033 11.3067C6.82322 11.0141 7.2981 11.0141 7.59099 11.3067L10.5962 14.3085L17.1369 7.77522C17.4298 7.48266 17.9047 7.48266 18.1976 7.77522C18.4905 8.06778 18.4905 8.54211 18.1976 8.83466L11.1265 15.8976C10.8336 16.1902 10.3588 16.1902 10.0659 15.8976L6.53033 12.3661C6.23744 12.0736 6.23744 11.5993 6.53033 11.3067Z" fill="black"/>
</g>
<defs>
<clipPath id="clip0">
<path d="M0 0H24V24H0V0Z" fill="white"/>
</clipPath>
</defs>
</svg>

<svg width="24" height="24" fill="none" xmlns="http://www.w3.org/2000/svg"><g clip-path="url(#clip0)" fill="#000"><path d="M12 23.997c-6.617 0-12-5.383-12-12s5.383-12 12-12 12 5.383 12 12-5.383 12-12 12zm0-22.5c-5.79 0-10.5 4.71-10.5 10.5s4.71 10.5 10.5 10.5 10.5-4.71 10.5-10.5-4.71-10.5-10.5-10.5z"/><path fill-rule="evenodd" clip-rule="evenodd" d="M6.53 11.307a.75.75 0 011.061 0l3.005 3.002 6.54-6.534a.75.75 0 011.062 1.06l-7.072 7.063a.75.75 0 01-1.06 0L6.53 12.366a.748.748 0 010-1.06z"/></g><defs><clipPath id="clip0"><path d="M0 0h24v24H0V0z" fill="#fff"/></clipPath></defs></svg>
